resources/svg/minor-metafields.svg

<svg xmlns="http://www.w3.org/2000/svg" viewBox="0 0 20 20" fill="currentColor"><path d="M4 4.5a1.5 1.5 0 0 1 1.5-1.5h2a1.5 1.5 0 0 1 1.5 1.5v.5h2v-.5a1.5 1.5 0 0 1 1.5-1.5h2a1.5 1.5 0 0 1 1.5 1.5v.768a2 2 0 0 1 1 1.732v3h-14v-3a2 2 0 0 1 1-1.732v-.768Zm-1 7.5h14v3a2 2 0 0 1-2 2h-10a2 2 0 0 1-2-2v-3Z"/></svg>

<svg xmlns="http://www.w3.org/2000/svg" viewBox="0 0 20 20" fill="currentColor"><path d="M4 4.5A1.5 1.5 0 0 1 5.5 3h2A1.5 1.5 0 0 1 9 4.5V5h2v-.5A1.5 1.5 0 0 1 12.5 3h2A1.5 1.5 0 0 1 16 4.5v.768A2 2 0 0 1 17 7v3H3V7a2 2 0 0 1 1-1.732V4.5ZM3 12h14v3a2 2 0 0 1-2 2H5a2 2 0 0 1-2-2v-3Z" fill="#5C5F62"/></svg>
